src/sprites/svg/burger.svg

<svg xmlns="http://www.w3.org/2000/svg" viewBox="0 0 45 27">
  <path d="M0 22v5h45v-5H0zm0-11v5h45v-5H0zM0 0v5h45V0H0z"/>
</svg>

<?xml version="1.0" encoding="utf-8"?>
<svg xmlns="http://www.w3.org/2000/svg"
	xmlns:xlink="http://www.w3.org/1999/xlink"
 viewBox="0 0 45 27">
<path fillRule="evenodd" d="M 0 22C 0 22 0 27 0 27 0 27 45 27 45 27 45 27 45 22 45 22 45 22 0 22 0 22ZM 0 11C 0 11 0 16 0 16 0 16 45 16 45 16 45 16 45 11 45 11 45 11 0 11 0 11ZM 0-0C 0-0 0 5 0 5 0 5 45 5 45 5 45 5 45-0 45-0 45-0 0-0 0-0Z" /></svg>
